flags/language/ie.svg

<svg width="512" height="512" viewBox="0 0 512 512" fill="none" xmlns="http://www.w3.org/2000/svg">
<rect width="512" height="512" fill="var(--flag-palette-white, #eeeeee)"/>
<path d="M256.211 72.0001C225.937 71.9647 196.121 79.4001 169.408 93.6468C142.696 107.894 119.911 128.512 103.074 153.673C86.2378 178.834 75.8699 207.76 72.8898 237.888C69.9097 268.015 74.4095 298.413 85.9902 326.385C97.571 354.357 115.875 379.039 139.279 398.243C162.683 417.447 190.464 430.58 220.159 436.476C249.853 442.373 280.544 440.851 309.51 432.046C338.476 423.241 364.822 407.425 386.211 386C411.901 360.268 429.39 327.502 436.472 291.838C443.554 256.173 439.911 219.21 426.002 185.615C412.093 152.02 388.543 123.299 358.324 103.078C328.104 82.8571 292.572 72.0426 256.211 72.0001ZM256.211 120C291.211 120 326.211 133 352.211 160C374.211 182 374.211 217 352.211 239C347.084 244.292 340.945 248.5 334.159 251.374C327.374 254.247 320.08 255.728 312.711 255.728C305.342 255.728 298.049 254.247 291.263 251.374C284.478 248.5 278.339 244.292 273.211 239C263.063 228.795 250.906 220.808 237.512 215.543C224.117 210.279 209.775 207.852 195.394 208.416C181.013 208.98 166.906 212.523 153.964 218.82C141.023 225.117 129.53 234.032 120.211 245C123.423 211.04 139.098 179.473 164.213 156.39C189.328 133.307 222.102 120.343 256.211 120ZM200.211 256C214.211 256 228.211 262 239.211 273C249.36 283.205 261.516 291.192 274.911 296.457C288.306 301.721 302.647 304.148 317.028 303.584C331.409 303.02 345.517 299.478 358.458 293.18C371.399 286.883 382.893 277.968 392.211 267C389.211 298 376.211 328 352.211 352C300.211 405 215.211 405 162.211 354L161.211 353C160.888 352.657 160.554 352.324 160.211 352C154.919 346.872 150.711 340.734 147.838 333.948C144.964 327.163 143.483 319.869 143.483 312.5C143.483 305.131 144.964 297.838 147.838 291.052C150.711 284.267 154.919 278.128 160.211 273C171.211 262 185.211 256 200.211 256Z" fill="var(--flag-palette-bright-red, #d80027)"/>
</svg>

<svg xmlns="http://www.w3.org/2000/svg" width="512" height="512" fill="none"><path fill="var(--flag-palette-white, #eeeeee)" d="M0 0h512v512H0z"/><path fill="var(--flag-palette-bright-red, #d80027)" d="M256.2 72a184 184 0 1 0-.4 368 184 184 0 0 0 .4-368m0 48c35 0 70 13 96 40 22 22 22 57 0 79a55 55 0 0 1-79 0 104 104 0 0 0-153 6 138 138 0 0 1 136-125m-56 136c14 0 28 6 39 17a104 104 0 0 0 153-6c-3 31-16 61-40 85-52 53-137 53-190 2l-1-1-1-1a55 55 0 0 1 0-79c11-11 25-17 40-17"/></svg>
